brandFactory_export/1.Light/Niño_1Light.svg

<?xml version="1.0" encoding="UTF-8"?>
<svg width="24px" height="24px" viewBox="0 0 24 24" version="1.1" xmlns="http://www.w3.org/2000/svg" xmlns:xlink="http://www.w3.org/1999/xlink">
    <title>1.Light/Niño_1Light</title>
    <g id="Symbols" stroke="none" stroke-width="1" fill="none" fill-rule="evenodd">
        <g id="1.Light/Niño_1Light" fill="#5CB615" fill-rule="nonzero">
            <path d="M13.2436975,18.5092437 C13.4319328,18.3243697 13.7378151,18.3243697 13.9294118,18.5092437 C14.1176471,18.6941176 14.1176471,18.9932773 13.9294118,19.1815126 C13.2840336,19.8134454 12.5915966,20.1428571 11.8722689,20.1529412 L11.8319328,20.1529412 C11.0991597,20.1529412 10.3932773,19.8268908 9.73445378,19.1781513 C9.54621849,18.9932773 9.54621849,18.6941176 9.73445378,18.5058824 C9.92268908,18.3210084 10.2285714,18.3210084 10.4201681,18.5058824 C10.9008403,18.9764706 11.405042,19.1882353 11.8588235,19.2016807 C12.312605,19.194958 12.7798319,18.9630252 13.2436975,18.5092437 Z M21.2672269,17.205042 C21.7848739,17.1983193 22.6554622,17 22.6554622,15.7596639 C22.6554622,14.5226891 21.794958,14.3277311 21.2840336,14.3243697 C21.1865546,14.3243697 21.1226891,14.3243697 21.0252101,14.3277311 C20.994958,15.2722689 20.9277311,16.1731092 20.7596639,17.1714286 C20.8,17.1848739 20.8268908,17.1882353 20.8672269,17.1882353 C20.994958,17.205042 21.0588235,17.205042 21.102521,17.2084034 L21.2672269,17.205042 L21.2672269,17.205042 Z M20.0672269,14.0252101 L20.0672269,11.6890756 C20.0605042,11.487395 20.0504202,11.2957983 20.0403361,11.1042017 L3.49579832,11.1042017 L3.48907563,11.6991597 L3.50252101,14.0319328 C3.64705882,19.4201681 5.08907563,21.7159664 8.31260504,21.7159664 C8.51092437,21.7159664 8.69579832,21.7058824 8.88067227,21.692437 L14.6689076,21.692437 C15.092437,21.7159664 15.4588235,21.7193277 15.8285714,21.692437 L15.9697479,21.692437 C16,21.6823529 16.0302521,21.6756303 16.0638655,21.6722689 C18.6621849,21.4134454 19.9327731,18.9831933 20.0672269,14.0252101 Z M8.3092437,4.02184874 C5.03529412,4.02184874 3.74789916,5.64201681 3.52605042,10.1563025 L7.21008403,10.1563025 C7.37142857,8.00168067 8.09411765,6.30084034 9.37142857,5.0907563 C9.72773109,4.7512605 10.1243697,4.45546218 10.5613445,4.20336134 C9.95966387,4.09579832 9.31428571,4.03529412 8.61512605,4.03529412 L8.53781513,4.03193277 C8.44033613,4.02521008 8.41008403,4.02184874 8.3092437,4.02184874 L8.3092437,4.02184874 Z M11.9798319,4.58991597 C11.2336134,4.87563025 10.5848739,5.26554622 10.0504202,5.77310924 C8.96470588,6.80168067 8.34285714,8.27731092 8.19159664,10.1563025 L15.7714286,10.1563025 C15.6168067,8.27394958 14.994958,6.80168067 13.912605,5.77310924 C13.3781513,5.26554622 12.7294118,4.87226891 11.9798319,4.58991597 L11.9798319,4.58991597 Z M15.3411765,4.03193277 C14.6420168,4.03193277 13.9966387,4.09243697 13.394958,4.2 C13.8285714,4.45546218 14.2252101,4.74789916 14.5848739,5.08739496 C15.8588235,6.29747899 16.5848739,7.99831933 16.7462185,10.1529412 L19.9798319,10.1529412 C19.6336134,6.24033613 18.3731092,4.28739496 16.0605042,4.05210084 C16.0302521,4.0487395 15.9865546,4.04537815 15.9428571,4.04201681 L15.8554622,4.03193277 C15.6705882,4.02184874 15.5663866,4.02857143 15.4016807,4.02521008 L15.3411765,4.02521008 L15.3411765,4.03193277 Z M2.5210084,17.205042 C2.56134454,17.205042 2.72605042,17.194958 2.81680672,17.1848739 C2.6487395,16.2235294 2.57815126,15.2386555 2.54789916,14.3176471 C2.46386555,14.3210084 2.41680672,14.3210084 2.34285714,14.3210084 C1.83193277,14.3243697 0.971428571,14.5193277 0.971428571,15.7563025 C0.971428571,16.9966387 1.84201681,17.194958 2.35966387,17.2016807 L2.5210084,17.205042 Z M21.2941176,13.3731092 C22.3697479,13.3831933 23.6235294,14.0151261 23.6235294,15.7563025 C23.6235294,17.497479 22.3630252,18.1361345 21.2806723,18.1529412 L21.0857143,18.1529412 C21.0184874,18.1529412 20.9142857,18.1462185 20.789916,18.1327731 C20.712605,18.1226891 20.6521008,18.102521 20.5714286,18.0857143 C20.0268908,20.3512605 18.8638655,22.2773109 16.3092437,22.6033613 C16.2521008,22.6302521 16.1882353,22.6436975 16.1210084,22.6436975 L15.8554622,22.6436975 C15.6840336,22.6571429 15.4756303,22.6672269 15.2571429,22.6672269 C15.0386555,22.6672269 14.8336134,22.6571429 14.6319328,22.6436975 L8.91092437,22.6436975 C8.7394958,22.6571429 8.53109244,22.6672269 8.31260504,22.6672269 C5.06890756,22.6672269 3.64369748,20.589916 3.01848739,18.1193277 C2.87394958,18.1361345 2.60168067,18.1529412 2.53781513,18.1563025 L2.34285714,18.1563025 C1.26386555,18.1394958 0.00336134454,17.5042017 0.00336134454,15.7596639 C0.00336134454,14.0151261 1.25714286,13.3865546 2.33277311,13.3764706 L2.33613445,13.3764706 C2.40672269,13.3764706 2.45378151,13.3798319 2.53109244,13.3831933 L2.5210084,11.6957983 L2.52773109,11.107563 L0.484033613,11.107563 C0.21512605,11.107563 0,10.8957983 0,10.6336134 C0,10.3714286 0.218487395,10.1596639 0.484033613,10.1596639 L2.55798319,10.1596639 C2.75630252,5.88067227 3.88571429,3.07058824 8.31260504,3.07058824 C8.53445378,3.07058824 8.7394958,3.08067227 8.94453782,3.08067227 L10.8436975,3.09747899 C10.6689076,2.88907563 10.5647059,2.61680672 10.5647059,2.25714286 C10.5647059,1.85042017 10.6756303,1.53781513 10.9008403,1.32605042 C11.1159664,1.1210084 11.4285714,1.02016807 11.8252101,1.02016807 C12.2218487,1.02016807 12.5344538,1.12436975 12.7529412,1.32605042 C12.9781513,1.53781513 13.092437,1.85378151 13.092437,2.25714286 C13.092437,2.61680672 12.9882353,2.88907563 12.8134454,3.09747899 L14.6655462,3.09747899 C15.005042,3.07058824 15.4823529,3.07058824 15.8890756,3.09747899 L16.107563,3.11092437 C16.1747899,3.11764706 16.2521008,3.12773109 16.3193277,3.13781513 C20.3462185,3.66218487 20.9411765,8.25714286 21.0319328,11.6857143 L21.0319328,13.3798319 C21.1495798,13.3764706 21.189916,13.3798319 21.2941176,13.3731092 Z M8.88739496,13.0235294 C9.15294118,13.0235294 9.37142857,13.2352941 9.37142857,13.497479 L9.37142857,15.7193277 C9.37142857,15.9815126 9.15294118,16.1932773 8.88739496,16.1932773 C8.61848739,16.1932773 8.40336134,15.9815126 8.40336134,15.7193277 L8.40336134,13.497479 C8.40336134,13.2386555 8.61848739,13.0235294 8.88739496,13.0235294 Z M14.6756303,13.0235294 C14.9411765,13.0235294 15.1596639,13.2352941 15.1596639,13.497479 L15.1596639,15.7193277 C15.1596639,15.9815126 14.9411765,16.1932773 14.6756303,16.1932773 C14.4067227,16.1932773 14.1915966,15.9815126 14.1915966,15.7193277 L14.1915966,13.497479 C14.1915966,13.2386555 14.4067227,13.0235294 14.6756303,13.0235294 Z" id="Niño_1Light"></path>
        </g>
    </g>
</svg>

<svg width="24" height="24" viewBox="0 0 24 24" xmlns="http://www.w3.org/2000/svg"><path d="M13.244 18.51a.493.493 0 01.685 0 .47.47 0 010 .672c-.645.631-1.337.96-2.057.97h-.04c-.733 0-1.439-.325-2.098-.974a.47.47 0 010-.672.493.493 0 01.686 0c.48.47.985.682 1.439.696.454-.007.92-.239 1.385-.693zm8.023-1.305c.518-.007 1.388-.205 1.388-1.445 0-1.237-.86-1.432-1.371-1.436-.097 0-.161 0-.259.004-.03.944-.097 1.845-.265 2.843a.3.3 0 00.107.017c.128.017.192.017.236.02l.164-.003zm-1.2-3.18V11.69a29.9 29.9 0 00-.027-.585H3.496l-.007.595.014 2.333c.144 5.388 1.586 7.684 4.81 7.684.198 0 .383-.01.568-.024h5.788c.423.024.79.027 1.16 0h.14c.031-.01.061-.016.095-.02 2.598-.259 3.869-2.689 4.003-7.647zM8.31 4.022c-3.274 0-4.561 1.62-4.783 6.134H7.21c.161-2.154.884-3.855 2.161-5.065.357-.34.753-.636 1.19-.888a11.017 11.017 0 00-1.946-.168l-.077-.003c-.098-.007-.128-.01-.229-.01zm3.67.568c-.745.286-1.394.676-1.929 1.183-1.085 1.029-1.707 2.504-1.858 4.383h7.58c-.155-1.882-.777-3.354-1.86-4.383A5.678 5.678 0 0011.98 4.59zm3.362-.558c-.699 0-1.344.06-1.946.168.434.255.83.548 1.19.887 1.274 1.21 2 2.911 2.161 5.066h3.234c-.346-3.913-1.607-5.866-3.92-6.1a4.018 4.018 0 00-.117-.011l-.088-.01c-.184-.01-.289-.003-.453-.007h-.06v.007zM2.521 17.205c.04 0 .205-.01.296-.02-.168-.961-.239-1.946-.27-2.867-.083.003-.13.003-.204.003-.511.003-1.372.198-1.372 1.435 0 1.24.871 1.439 1.389 1.446l.161.003zm18.773-3.832c1.076.01 2.33.642 2.33 2.383s-1.261 2.38-2.343 2.397h-.195c-.068 0-.172-.007-.296-.02-.077-.01-.138-.03-.219-.047-.544 2.265-1.707 4.191-4.262 4.517a.44.44 0 01-.188.04h-.266a7.796 7.796 0 01-1.223 0H8.91c-.172.014-.38.024-.598.024-3.244 0-4.67-2.077-5.295-4.548-.144.017-.416.034-.48.037h-.195c-1.08-.017-2.34-.652-2.34-2.396 0-1.745 1.254-2.373 2.33-2.384h.003c.07 0 .118.004.195.007l-.01-1.687.007-.588H.484A.478.478 0 010 10.634a.48.48 0 01.484-.474h2.074c.198-4.28 1.328-7.09 5.755-7.09.221 0 .426.01.632.01l1.899.017c-.175-.208-.28-.48-.28-.84 0-.407.112-.72.337-.93.215-.206.528-.307.924-.307.397 0 .71.104.928.306.225.212.34.528.34.931 0 .36-.105.632-.28.84h1.853c.339-.026.816-.026 1.223 0l.219.014c.067.007.144.017.211.027 4.027.524 4.622 5.12 4.713 8.548v1.694c.118-.004.158 0 .262-.007zm-12.407-.35a.48.48 0 01.484.474v2.222a.48.48 0 01-.484.474.478.478 0 01-.484-.474v-2.222a.48.48 0 01.484-.473zm5.789 0a.48.48 0 01.484.474v2.222a.48.48 0 01-.484.474.478.478 0 01-.484-.474v-2.222a.48.48 0 01.484-.473z" fill="#5CB615" fill-rule="nonzero"/></svg>
